svg/azure-logic-app.svg

<?xml version="1.0" encoding="UTF-8"?>
<svg xmlns="http://www.w3.org/2000/svg" xmlns:xlink="http://www.w3.org/1999/xlink" width="32" height="32" viewBox="0 0 32 32">
<defs>
<linearGradient id="linear-pattern-0" gradientUnits="userSpaceOnUse" x1="5.05" y1="10.55" x2="5.05" y2="13.48" gradientTransform="matrix(1.777778, 0.00266842, -0.00266842, 1.777778, 0, 0)">
<stop offset="0" stop-color="rgb(46.27451%, 73.72549%, 17.647059%)" stop-opacity="1"/>
<stop offset="1" stop-color="rgb(36.862745%, 58.823529%, 14.117647%)" stop-opacity="1"/>
</linearGradient>
<linearGradient id="linear-pattern-1" gradientUnits="userSpaceOnUse" x1="12.84" y1="10.57" x2="12.84" y2="13.5" gradientTransform="matrix(1.777778, 0.00266842, -0.00266842, 1.777778, 0, 0)">
<stop offset="0" stop-color="rgb(46.27451%, 73.72549%, 17.647059%)" stop-opacity="1"/>
<stop offset="1" stop-color="rgb(36.862745%, 58.823529%, 14.117647%)" stop-opacity="1"/>
</linearGradient>
</defs>
<path fill-rule="nonzero" fill="rgb(58.039216%, 58.039216%, 58.039216%)" fill-opacity="1" d="M 5.671875 27.734375 C 4.714844 27.808594 3.761719 27.570312 2.949219 27.058594 C 2.339844 26.410156 2.046875 25.523438 2.152344 24.640625 L 2.152344 18.363281 C 2.152344 17.332031 1.742188 16.78125 0.890625 16.78125 L 0.890625 15.21875 C 1.742188 15.21875 2.152344 14.667969 2.152344 13.582031 L 2.152344 7.414062 C 2.054688 6.515625 2.34375 5.613281 2.949219 4.941406 C 3.75 4.402344 4.714844 4.164062 5.671875 4.265625 L 5.671875 5.847656 C 4.765625 5.847656 4.265625 6.328125 4.265625 7.359375 L 4.265625 13.40625 C 4.265625 14.792969 3.859375 15.644531 2.949219 16 C 3.894531 16.5 4.421875 17.539062 4.265625 18.59375 L 4.265625 24.585938 C 4.25 25.011719 4.355469 25.429688 4.570312 25.796875 C 4.84375 26.058594 5.222656 26.1875 5.601562 26.152344 L 5.601562 27.734375 Z M 26.328125 4.265625 C 27.285156 4.191406 28.238281 4.429688 29.050781 4.941406 C 29.660156 5.589844 29.953125 6.476562 29.847656 7.359375 L 29.847656 13.636719 C 29.847656 14.667969 30.257812 15.21875 31.109375 15.21875 L 31.109375 16.78125 C 30.257812 16.78125 29.847656 17.332031 29.847656 18.417969 L 29.847656 24.515625 C 29.949219 25.421875 29.660156 26.328125 29.050781 27.003906 C 28.261719 27.566406 27.292969 27.824219 26.328125 27.734375 L 26.328125 26.152344 C 27.234375 26.152344 27.734375 25.671875 27.734375 24.640625 L 27.734375 18.59375 C 27.734375 17.207031 28.140625 16.355469 29.050781 16 C 28.105469 15.503906 27.578125 14.460938 27.734375 13.40625 L 27.734375 7.414062 C 27.75 6.988281 27.644531 6.570312 27.429688 6.203125 C 27.152344 5.941406 26.777344 5.8125 26.398438 5.847656 Z M 26.328125 4.265625 "/>
<path fill-rule="nonzero" fill="rgb(0%, 35.686275%, 63.137255%)" fill-opacity="1" d="M 16.730469 14.84375 L 16.730469 12.585938 L 15.128906 12.585938 L 15.128906 14.84375 C 15.128906 15.019531 14.984375 15.164062 14.808594 15.164062 L 8.890625 15.164062 C 8.71875 15.164062 8.558594 15.230469 8.4375 15.351562 C 8.316406 15.472656 8.25 15.632812 8.25 15.804688 L 8.25 18.738281 L 9.847656 18.738281 L 9.847656 17.121094 C 9.847656 16.949219 9.980469 16.808594 10.152344 16.800781 L 21.777344 16.800781 C 21.859375 16.800781 21.941406 16.835938 22.003906 16.894531 C 22.0625 16.953125 22.097656 17.035156 22.097656 17.121094 L 22.097656 18.773438 L 23.679688 18.773438 L 23.679688 15.804688 C 23.675781 15.460938 23.402344 15.179688 23.058594 15.164062 L 17.050781 15.164062 C 16.964844 15.167969 16.882812 15.132812 16.824219 15.070312 C 16.761719 15.011719 16.726562 14.929688 16.730469 14.84375 "/>
<path fill-rule="nonzero" fill="rgb(0%, 47.058824%, 83.137255%)" fill-opacity="1" d="M 18.863281 5.707031 L 12.890625 5.707031 C 12.527344 5.707031 12.226562 5.996094 12.214844 6.363281 L 12.214844 12.335938 C 12.214844 12.511719 12.289062 12.683594 12.414062 12.808594 C 12.542969 12.929688 12.714844 12.996094 12.890625 12.996094 L 18.863281 12.996094 C 19.042969 13.003906 19.21875 12.941406 19.351562 12.816406 C 19.480469 12.691406 19.554688 12.515625 19.554688 12.335938 L 19.554688 6.363281 C 19.550781 6.183594 19.476562 6.011719 19.34375 5.890625 C 19.214844 5.769531 19.042969 5.703125 18.863281 5.707031 M 18.292969 11.34375 C 18.285156 11.582031 18.085938 11.769531 17.847656 11.769531 L 13.882812 11.769531 C 13.644531 11.769531 13.449219 11.582031 13.441406 11.34375 L 13.441406 7.378906 C 13.441406 7.132812 13.640625 6.933594 13.882812 6.933594 L 17.777344 6.933594 C 18.023438 6.933594 18.222656 7.132812 18.222656 7.378906 Z M 18.292969 11.34375 "/>
<path fill-rule="nonzero" fill="url(#linear-pattern-0)" d="M 6.84375 18.753906 L 11.109375 18.753906 C 11.375 18.753906 11.589844 18.96875 11.589844 19.234375 L 11.589844 23.503906 C 11.582031 23.765625 11.371094 23.976562 11.109375 23.980469 L 6.84375 23.980469 C 6.582031 23.976562 6.371094 23.765625 6.363281 23.503906 L 6.363281 19.234375 C 6.363281 18.96875 6.578125 18.753906 6.84375 18.753906 M 6.84375 18.753906 "/>
<path fill-rule="nonzero" fill="url(#linear-pattern-1)" d="M 20.710938 18.792969 L 24.976562 18.792969 C 25.242188 18.792969 25.457031 19.007812 25.457031 19.269531 L 25.457031 23.539062 C 25.457031 23.804688 25.242188 24.019531 24.976562 24.019531 L 20.710938 24.019531 C 20.445312 24.019531 20.230469 23.804688 20.230469 23.539062 L 20.230469 19.269531 C 20.230469 19.007812 20.445312 18.792969 20.710938 18.792969 M 20.710938 18.792969 "/>
</svg>

<svg role="img" viewBox="0 0 32 32" height="32" width="32" xmlns="http://www.w3.org/2000/svg"><defs><linearGradient gradientTransform="rotate(.086)scale(1.77778)" gradientUnits="userSpaceOnUse" id="252__250__134__132__385__383__97__95__12__10__385__383__20__18__465__463__110__108__374__372__azure-logic-app_svg__svg/azure-logic-app.svg33__svg/azure-logic-app.svg29__azure-logic-app-lp-0" x1="5.05" x2="5.05" y1="10.55" y2="13.48"><stop offset="0" stop-color="rgb(46.27451%, 73.72549%, 17.647059%)"/><stop offset="1" stop-color="rgb(36.862745%, 58.823529%, 14.117647%)"/></linearGradient><linearGradient gradientTransform="rotate(.086)scale(1.77778)" gradientUnits="userSpaceOnUse" id="253__251__135__133__386__384__98__96__13__11__386__384__21__19__466__464__111__109__375__373__azure-logic-app_svg__svg/azure-logic-app.svg35__svg/azure-logic-app.svg31__azure-logic-app-lp-1" x1="12.84" x2="12.84" y1="10.57" y2="13.5"><stop offset="0" stop-color="rgb(46.27451%, 73.72549%, 17.647059%)"/><stop offset="1" stop-color="rgb(36.862745%, 58.823529%, 14.117647%)"/></linearGradient></defs><path d="M5.672 27.734a4.46 4.46 0 0 1-2.723-.675 3.013 3.013 0 0 1-.797-2.418v-6.278c0-1.031-.41-1.582-1.261-1.582V15.22c.851 0 1.261-.551 1.261-1.637V7.414a3.189 3.189 0 0 1 .797-2.473 4.1 4.1 0 0 1 2.723-.675v1.582c-.906 0-1.406.48-1.406 1.511v6.047c0 1.387-.407 2.239-1.317 2.594.946.5 1.473 1.54 1.317 2.594v5.992c-.016.426.09.844.304 1.21.274.263.653.392 1.032.356v1.582ZM26.328 4.266a4.46 4.46 0 0 1 2.723.675c.61.649.902 1.536.797 2.418v6.278c0 1.031.41 1.582 1.261 1.582v1.562c-.851 0-1.261.551-1.261 1.637v6.098a3.19 3.19 0 0 1-.797 2.488 4.05 4.05 0 0 1-2.723.73v-1.582c.906 0 1.406-.48 1.406-1.511v-6.047c0-1.387.407-2.239 1.317-2.594a2.518 2.518 0 0 1-1.317-2.594V7.414a2.23 2.23 0 0 0-.304-1.21 1.323 1.323 0 0 0-1.032-.356Zm0 0" fill="rgb(58.039216%, 58.039216%, 58.039216%)"/><path d="M16.73 14.844v-2.258h-1.6v2.258c0 .176-.145.32-.32.32H8.89a.639.639 0 0 0-.641.64v2.934h1.598v-1.617c0-.172.132-.312.304-.32h11.625c.082 0 .164.035.227.094.058.058.094.14.094.226v1.652h1.582v-2.968a.65.65 0 0 0-.621-.64H17.05a.293.293 0 0 1-.227-.095.293.293 0 0 1-.094-.226" fill="rgb(0%, 35.686275%, 63.137255%)"/><path d="M18.863 5.707h-5.972a.677.677 0 0 0-.676.656v5.973c0 .176.074.348.2.473.128.12.3.187.476.187h5.972a.667.667 0 0 0 .489-.18.674.674 0 0 0 .203-.48V6.363a.657.657 0 0 0-.211-.472.679.679 0 0 0-.48-.184m-.571 5.637a.444.444 0 0 1-.445.426h-3.965a.44.44 0 0 1-.442-.426V7.379c0-.246.2-.445.442-.445h3.894c.246 0 .446.199.446.445Zm0 0" fill="rgb(0%, 47.058824%, 83.137255%)"/><path d="M6.844 18.754h4.265a.48.48 0 0 1 .48.48v4.27a.49.49 0 0 1-.48.476H6.844a.49.49 0 0 1-.48-.476v-4.27a.48.48 0 0 1 .48-.48m0 0" fill="url(#252__250__134__132__385__383__97__95__12__10__385__383__20__18__465__463__110__108__374__372__azure-logic-app_svg__svg/azure-logic-app.svg33__svg/azure-logic-app.svg29__azure-logic-app-lp-0)"/><path d="M20.71 18.793h4.267a.48.48 0 0 1 .48.477v4.27a.48.48 0 0 1-.48.48H20.71a.48.48 0 0 1-.48-.48v-4.27a.48.48 0 0 1 .48-.477m0 0" fill="url(#253__251__135__133__386__384__98__96__13__11__386__384__21__19__466__464__111__109__375__373__azure-logic-app_svg__svg/azure-logic-app.svg35__svg/azure-logic-app.svg31__azure-logic-app-lp-1)"/></svg>
